X: 137
%
U:~=!turn!
T: The Doctor
C:Marshall
O:Scotland
B:Keith Norman MacDonald : "The Skye collection of the best reels & strathspeys extant" : 1887
Z:Ralph Palmer
R:Strathspey
M:C
L:1/8
K:Bb
B<GTF>E {FE}D>CB,>d | e>cf>d c/c/c Tc2 | (c/B/)(A/G/) TF>E {FE}D>CB,>d | e>cf>d B/B/B ~B2 :|
B>fd>f B<fd<f | e<gd>f c/c/c ~c2 | B>f(d>f) B>f(d>f ) | (e<g)f>d B/B/B ~B2 |
(B>f)d>f B<fd<f | (e<g)d>f c/c/c ~c(g/a/) | b>ga>f g>ef>e | e<cf>d B/B/B ~B2 |]


